d1 
$ n "0*4"
# s "bd"
# orbit 0

d2
$ jux' [rev,(# speed 2)] $ every 2 ("<0.25 0.125 0.5>" <~)
$ n " 5 5 "
# s "sd"
# orbit 1

d3
$ jux' [rev,(# speed 2)] $ every 2 ("<0.25 0.125 0.5>" <~)
$ every 3 (striate 16)
$ n "0*16"
# s "hh"
# orbit 2
# gain 1.5

hush