-- # d8 is where the audoio out of the es-9 begins, only 4 channels are useable until I figure out the orbit issue
d8 $ sound "cp" # gain 0.8

hush 

d1 
$ s "hh:2"
# n "x~x~x~x~x~x~x~x~"


d1 
$ stack [
iter 2 
$ s "hh",
every 2 ("<1 0.75 0.5 0.25 0.10>" <~) 
$ s (steps [("hh", "x x x x "),("hh:7", "     x  ")]) 
]


d2 
$ slow 1
$ iter 2 
$ s (steps [("sn:2", " x x")])


d2 silence

hush

-- normal
d2
$ every 2 ("<0.25 0.5 0.125 0.5>" <~) 
$ stack [
s (steps [("hh","x   x  x xx  x  "),("bd", "xxxx")])
] 
# speed "[[1 0.8], [1.5 2]*2]/3"
# squiz "<1 2.5 2>"
# room (slow 4 $ range 0 0.2 saw)
# sz 0.5
# gain 1

hush

-- fucked
d2
$ every 2 ("<0.25 0.5 0.125 0.5>" <~) 
$ stack [
s (steps [("hh","x   x  x xx  x  "),("bd", "xxxx")])
] 
# speed "[[1 0.8], [1.5 2]*2]/3"
# squiz "<1 2.5 2>"
# room (slow 4 $ range 0 0.2 saw)
# sz 0.5
# gain 1
# cps (slow 8 $ 0.5 + rand)

hush

d2 silence

d6  
$ echoWith 4 (1/6) (|* speed "1.5") 
$ fast 4 
$ slice 8 "7 6 5 4 3 2 1 0 " 
$ loopAt 2 
$ sound "cp:5" 
# delaytime "x" 
# delay 0.8 
# delayfb 0.4 
# gain ("0.1 0.2 0.3 0.4 0.5 0.6 0.7 0.8")


d6
$ fast 3
$ every 4 (slow 2)
$ stutter 4 (1/16)
$ every 2 ("<0.25 0.5 0.125 0.5>" <~) 
$ stack [
s (steps [("hh","x   x  x xx  x  "),("bd", "xxxx"), ("sn:3", " x x")]),
s (steps [("can:4", "x   ")])
] 
# speed "[[1 0.8], [1.5 2]*2]/3"
# squiz "<1 2.5 2>"
# room (slow 4 $ range 0 0.2 saw)
# sz 0.5

# gain "<0.1 0.3 0.5 0.7 0.8>"

d6
$ ((slice (irand 8) (choose [round 0.125, round 0.25, round 0.5]))) 
$ sound "breaks123" 
# delay 0.25

# gain 2

d5 silence 

d2  
$ echo 4 0.2 0.5
$ fast 8
$ jux rev 
$ every 2 (rot "<1 3 2>")
$ every 2 ("<0.25 0.5 0.125 0.5>" <~) 
$ stack[
s (steps [("can:4", "x   ")])
]
# speed "[[1 0.8], [1.5 2]*2]/3"
# squiz "<1 2.5 2>"
# room (slow 4 $ range 0 0.2 saw)
# sz 0.5
# tsdelay "0 0.25 0.5 0.75 1 2" 
# xsdelay "3 124 3 12 62 2 3"

# gain 2

d2 silence

d3 
$ every 2 (0.25 <~) 
$ stack [
s "bd*2 [[~ sn:2] sn:3] bd:1 [~ bd:3*2]",
s "hh*8 [[~ hh:hh*2] hh:8*4]"
]


clutch 5 silence

d5 $ s "cp*2"


d5 silence

# chop 16 #loopAt 2 ("sn")

d1 
$ s "bd sn"
# striate 0.5


hush

d6 $ clock # x 5


d9  
$ n "[0 11]/8" 
# s "supersaw" 
# pitch1 4
# voice 1
# accelerate 4
# decay 4
# lfo 1
# rate 0.5
# gain 0.5


hush

clutch 9 silence

-- get fucked
d4  
$ slow 2 
$ echo 4 0.2 0.5
$ chunk 4 (|- note 3) 
$ jux rev 
$ arp "<pinkyup down thumbup up>" 
$ n "<c'maj'5 a4'min'3 b4'maj'2>"
# sound "supersaw"
# sustain 3
# sz 1
# gain 0.6
# cps (slow 8 $ 0.5 + rand)


clutch 4 silence

hush

p "cpsfun" 
$ s "bd sd(3,8)" 
# cps (slow 8 $ 0.5 + saw)

d2
$ n fouronthefloor 
# s "bd:0" 


d4
$ every 4 (slow 2)
$ n snarelock
# s "sn:2" 

# room 0.5
# size 0.5

xfade 3 silence

d5
$ fast 6
$ every 6 (striate 16)
$ n sixteenths
# s "hh:0"


xfade 5 silence

hush

-- fucked
d5
$ echo 3 1 2
$ every 3 (chop 2)
$ every 5 (striate 3) 
$ n "c'maj f'maj7 g'maj5 c'maj5 a'min4 c'maj5" 
# s "supermandolin" 
# octersubsub 1
# gain 0.3
# cps (slow 8 $ 0.5 + sine)


hush